static/images/tech-icons/dark/node.svg

<svg height="28" viewBox="0 0 103 28" width="103" xmlns="http://www.w3.org/2000/svg"><g fill-rule="evenodd"><path d="m51.9011025.17240162c-.0709495.0008618-.1427133.01770657-.2060319.05465199-.1264241.07383396-.2060337.20943148-.2060337.35524481v10.45236328c0 .1027026-.0480759.1944758-.137354.2459822-.0895035.0516357-.1987234.0516357-.2884451 0l-1.7169352-.9837548c-.2558093-.1467319-.5682629-.146644-.8241295 0l-6.8540054 3.9350156c-.2562495.1470388-.4120657.4299216-.4120657.7241302v7.870031c0 .2939879.1560362.5631871.4120657.7104879l6.8540054 3.9350155c.2562495.1470819.5678801.1470819.8241295 0l6.8540055-3.9350155c.2560294-.1473008.4120656-.4165.4120656-.7104879v-19.62042382c0-.29846245-.1637277-.57855647-.4258008-.72415262l-4.0794384-2.26809885c-.064062-.03554585-.1350825-.04175427-.206032-.04096658zm-44.09090175 9.82385331c-.13070557.00523977-.25350315.02798097-.37085817.09566337l-6.85400719 3.9350155c-.2553918.1468631-.41206389.4143575-.41206389.7104897l.01370578 10.5616672c0 .1469078.07618921.2833206.20603367.3552879.12726619.0757713.28522742.0757713.41206389 0l4.06570314-2.3227956c.2575421-.1521976.42579912-.416936.42579912-.7104879v-4.9324109c0-.2942085.15558741-.5642367.41206562-.7104896l1.73067041-.9973936c.12917042-.0742855.26784482-.1093074.4120639-.1093074.14125957 0 .28646805.0349788.4120656.1093074l1.73067037.9973936c.2564696.1462529.4120639.4162811.4120639.7104896v4.9324109c0 .2935519.1699378.5599967.4258009.7104879l4.0657031 2.3227956c.1276855.0757713.2854249.0757713.4120639 0 .126204-.0719673.2060319-.2083801.2060319-.3552879l.0137058-10.5616672c0-.2961322-.1549359-.5636266-.4120639-.7104897l-6.85399157-3.9350155c-.11592728-.0676824-.2392689-.0903305-.3708582-.09566337h-.08241308zm61.58990775.09566337c-.1431916-.0001723-.2835016.0358527-.4120656.1093057l-6.8540055 3.9350156c-.2560294.1470819-.4120639.4162809-.4120639.7104896v7.8700292c0 .2959132.1675726.5642386.4257991.7104896l6.7990646 3.8530359c.2510842.1426229.5576604.1532903.8103925.0135475l4.1206458-2.2817843c.1307611-.0721431.219218-.2068943.2197672-.3552448.0008664-.1483936-.0769187-.2813971-.2060319-.3552448l-6.8952129-3.9350155c-.1291133-.0732341-.2197672-.2216277-.2197672-.3689285v-2.4593842c0-.1470389.0917524-.2817918.2197672-.3552017l2.142736-1.2297353c.1274655-.0733669.2840492-.0733669.4120639 0l2.142736 1.2297353c.1280147.0734099.2060319.2081628.2060319.3552017v1.9402248c0 .147256.0780172.2817901.206032.3552.128564.0736288.2840509.0739339.4120656 0l4.1069092-2.3773615c.2549302-.1473007.4120635-.4171996.4120635-.7104879v-1.8992134c0-.2933348-.1565835-.5631888-.4120635-.7104897l-6.8128001-3.9350154c-.1282919-.073977-.2688723-.1091299-.4120639-.1093057zm-20.493342 5.8751973c.0357338 0 .0777972.0087386.1098836.027107l2.348768 1.3526833c.0637327.0367266.1098836.1043659.1098836.1776v2.7053234c0 .073453-.0457108.1411354-.1098836.1776448l-2.348768 1.3526384c-.0639528.0362905-.1420791.0362905-.2060319 0l-2.348768-1.3526384c-.0639528-.0367265-.1098835-.1041918-.1098835-.1776448v-2.7053234c0-.0732341.0461508-.1406976.1098835-.1776l2.348768-1.3524643c.0320864-.0183633.0604094-.0271071.0961483-.0271071z"/><path d="m89.9346562 9.90063293c-.2376262 0-.4686547.0488814-.6730387.16395947l-6.4694138 3.7164023c-.4186567.2397738-.673038.6930002-.673038 1.1750402v7.4191641c0 .481778.2543813.9344786.673038 1.174997l1.689465.9701125c.8208323.4024198 1.123563.3962114 1.497168.3962114 1.2153158 0 1.9092315-.7335308 1.9092315-2.0084761v-7.3234991c0-.103535-.0901042-.1776447-.1922962-.1776447h-.810393c-.1038413 0-.1922985.0741097-.1922985.1776447v7.3234991c0 .5651124-.5917238 1.1334169-1.5521085.6558359l-1.758141-1.0247213c-.062085-.0336654-.1098855-.0930848-.1098855-.1639594v-7.4191641c0-.0704367.0472515-.1419663.1098855-.1776l6.4556767-3.7027618c.0604358-.034541.1324088-.034541.192297 0l6.4556768 3.7027618c.0615352.0367265.1098832.1050208.1098832.1776v7.4191641c0 .0708746-.0357337.1434537-.0961485.1776018l-6.4694115 3.7027617c-.0554925.0327916-.1318612.0327916-.192297 0l-1.661994-.9837547c-.0494482-.0288566-.1170262-.026671-.1648267 0-.4587638.2587058-.5450235.2887861-.9752183.4372246-.1060372.0367264-.2670187.0938725.0549428.273265l2.170206 1.2706604c.2065815.1189235.436788.1776.6730387.1776.2395463 0 .4664573-.0586765.673038-.1776l6.4694123-3.7027617c.418659-.242223.6730387-.6932191.6730387-1.1749971v-7.4191641c0-.48204-.2543797-.9342598-.6730387-1.1750402l-6.4694123-3.7164023c-.2027362-.11507807-.4354117-.16395947-.673038-.16395947zm-61.5349668.15027407c-.1428225 0-.2841584.0358526-.412064.1093057l-6.8540054 3.9213749c-.2562495.146906-.4120656.4301835-.4120656.7241302v7.8700292c0 .2942965.1559824.5632767.4120656.7104897l6.8540054 3.9350154c.2562495.147213.5678801.147213.8241296 0l6.8540054-3.9350154c.2558094-.147213.4120657-.4161932.4120657-.7104897v-7.8700292c0-.2943827-.1558162-.5772242-.4120657-.7241302l-6.8540054-3.9213749c-.1279056-.0734531-.2692431-.1093057-.4120656-.1093057zm71.1360686.0410992v.1912854h.535684v1.4072922h.219768v-1.4072922h.54942v-.1912854zm1.497168 0v1.5985776h.206032v-.9427416c0-.038476.00175-.0979817 0-.1776-.002634-.0811059 0-.1518046 0-.1913302v-.0410976l.453271 1.3526384h.219768l.467007-1.3526384c0 .0860457-.011558.1691182-.013707.2459374-.000866.0747647 0 .1309059 0 .1639594v.9427416h.206032v-1.5985775h-.30218l-.467006 1.3526832-.453272-1.3526832h-.315915zm-9.3675998 5.1100539c-1.8422032 0-2.9393932.7798767-2.9393932 2.0768135 0 1.4069439 1.088949 1.7934928 2.8569802 1.9675078 2.1152655.2059773 2.28009.5149193 2.28009.929101 0 .7184026-.5757915 1.0247213-1.9367017 1.0247213-1.709793 0-2.085597-.4245871-2.211414-1.2706587-.0148148-.0907253-.0851595-.1639594-.17856-.1639594h-.8378648c-.1032907 0-.192297.0883622-.192297.1912854 0 1.0830032.5922735 2.3637639 3.4201358 2.3637639 2.0471363 0 3.227838-.7993327 3.227838-2.1998045 0-1.3883618-.9537923-1.7610081-2.9393933-2.0221615-2.0064802-.2640834-2.197677-.393326-2.197677-.8607619 0-.3858508.162078-.9018181 1.648257-.9018181 1.3273965 0 1.8180293.2847633 2.0191155 1.1750832.0175823.0836844.0917543.1502723.1785616.1502723h.8378647c.0516458 0 .101643-.0314798.1373558-.0683374.0351622-.0393498.059886-.0836843.0549412-.1365886-.1296622-1.5333012-1.1576272-2.2544583-3.2278387-2.2544583zm-22.278953 1.8718875c-.0273838 0-.057689 0-.0824131.0135475l-1.3186065.7651417c-.0494482.0279826-.0824131.0800544-.0824131.1366316v1.5029573c0 .0565773.0329649.1084318.0824131.1366334l1.3186065.7514562c.0494465.0284187.1021921.0284187.1510893 0l1.3186065-.7514562c.048899-.0279827.0824131-.0800561.0824131-.1366334v-1.5029573c0-.0565772-.0334916-.1084749-.0824131-.1366316l-1.3186065-.7651417c-.0244382-.0144265-.0412716-.0135475-.0686762-.0135475z"/></g></svg>

<?xml version="1.0" encoding="UTF-8"?>
<svg width="103px" height="28px" viewBox="0 0 103 28" version="1.1" xmlns="http://www.w3.org/2000/svg" xmlns:xlink="http://www.w3.org/1999/xlink">
    <!-- Generator: Sketch 50.2 (55047) - http://www.bohemiancoding.com/sketch -->
    <title>node-white</title>
    <desc>Created with Sketch.</desc>
    <defs></defs>
    <g id="UI-Design-(Teal)" stroke="none" stroke-width="1" fill="none" fill-rule="evenodd">
        <g id="Services-Teal-v2" transform="translate(-431.000000, -806.000000)" fill="#000">
            <g id="tech-logos" transform="translate(264.000000, 790.000000)">
                <g id="Group-5-Copy-2" transform="translate(0.000000, 16.000000)">
                    <g id="Group-5-Copy">
                        <g id="node-white" transform="translate(167.000000, 0.000000)">
                            <path d="M51.9011025,0.172401615 C51.830153,0.173263418 51.7583892,0.190108185 51.6950706,0.227053605 C51.5686465,0.300887565 51.4890369,0.43648509 51.4890369,0.582298418 L51.4890369,11.0346617 C51.4890369,11.1373643 51.440961,11.2291375 51.3516829,11.2806439 C51.2621794,11.3322796 51.1529595,11.3322796 51.0632378,11.2806439 L49.3463026,10.2968891 C49.0904933,10.1501572 48.7780397,10.1502451 48.5221731,10.2968891 L41.6681677,14.2319047 C41.4119182,14.3789435 41.256102,14.6618263 41.256102,14.9560349 L41.256102,22.8260659 C41.256102,23.1200538 41.4121382,23.389253 41.6681677,23.5365538 L48.5221731,27.4715693 C48.7784226,27.6186512 49.0900532,27.6186512 49.3463026,27.4715693 L56.2003081,23.5365538 C56.4563375,23.389253 56.6123737,23.1200538 56.6123737,22.8260659 L56.6123737,3.20564208 C56.6123737,2.90717963 56.448646,2.62708561 56.1865729,2.48148946 L52.1071345,0.213390608 C52.0430725,0.177844755 51.972052,0.171636338 51.9011025,0.172424025 L51.9011025,0.172401615 Z M7.81020075,9.99625493 C7.67949518,10.0014947 7.5566976,10.0242359 7.43934258,10.0919183 L0.585335385,14.0269338 C0.329943593,14.1737969 0.173271503,14.4412913 0.173271503,14.7374235 L0.18697728,25.2990907 C0.18697728,25.4459985 0.263166488,25.5824113 0.39301095,25.6543786 C0.520277138,25.7301499 0.678238373,25.7301499 0.80507484,25.6543786 L4.87077798,23.331583 C5.12832008,23.1793854 5.2965771,22.914647 5.2965771,22.6210951 L5.2965771,17.6886842 C5.2965771,17.3944757 5.45216451,17.1244475 5.70864272,16.9781946 L7.43931313,15.980801 C7.56848355,15.9065155 7.70715795,15.8714936 7.85137703,15.8714936 C7.9926366,15.8714936 8.13784508,15.9064724 8.26344263,15.980801 L9.994113,16.9781946 C10.2505826,17.1244475 10.4061769,17.3944757 10.4061769,17.6886842 L10.4061769,22.6210951 C10.4061769,22.914647 10.5761147,23.1810918 10.8319778,23.331583 L14.8976809,25.6543786 C15.0253664,25.7301499 15.1831058,25.7301499 15.3097448,25.6543786 C15.4359488,25.5824113 15.5157767,25.4459985 15.5157767,25.2990907 L15.5294825,14.7374235 C15.5294825,14.4412913 15.3745466,14.1737969 15.1174186,14.0269338 L8.26342703,10.0919183 C8.14749975,10.0242359 8.02415813,10.0015878 7.89256883,9.99625493 L7.81015575,9.99625493 L7.81020075,9.99625493 Z M69.4001085,10.0919183 C69.2569169,10.091746 69.1166069,10.127771 68.9880429,10.201224 L62.1340374,14.1362396 C61.878008,14.2833215 61.7219735,14.5525205 61.7219735,14.8467292 L61.7219735,22.7167584 C61.7219735,23.0126716 61.8895461,23.280997 62.1477726,23.427248 L68.9468372,27.2802839 C69.1979214,27.4229068 69.5044976,27.4335742 69.7572297,27.2938314 L73.8778755,25.0120471 C74.0086366,24.939904 74.0970935,24.8051528 74.0976427,24.6568023 C74.0985091,24.5084087 74.020724,24.3754052 73.8916108,24.3015575 L66.9963979,20.366542 C66.8672846,20.2933079 66.7766307,20.1449143 66.7766307,19.9976135 L66.7766307,17.5382293 C66.7766307,17.3911904 66.8683831,17.2564375 66.9963979,17.1830276 L69.1391339,15.9532923 C69.2665994,15.8799254 69.4231831,15.8799254 69.5511978,15.9532923 L71.6939338,17.1830276 C71.8219485,17.2564375 71.8999657,17.3911904 71.8999657,17.5382293 L71.8999657,19.4784541 C71.8999657,19.6257101 71.9779829,19.7602442 72.1059977,19.8336541 C72.2345617,19.9072829 72.3900486,19.907588 72.5180633,19.8336541 L76.6249725,17.4562926 C76.8799027,17.3089919 77.037036,17.039093 77.037036,16.7458047 L77.037036,14.8465913 C77.037036,14.5532565 76.8804525,14.2834025 76.6249725,14.1361016 L69.8121724,10.2010862 C69.6838805,10.1271092 69.5433001,10.0919563 69.4001085,10.0917805 L69.4001085,10.0919183 Z M48.9067665,15.9671156 C48.9425003,15.9671156 48.9845637,15.9758542 49.0166501,15.9942226 L51.3654181,17.3469059 C51.4291508,17.3836325 51.4753017,17.4512718 51.4753017,17.5245059 L51.4753017,20.2298293 C51.4753017,20.3032823 51.4295909,20.3709647 51.3654181,20.4074741 L49.0166501,21.7601125 C48.9526973,21.796403 48.874571,21.796403 48.8106182,21.7601125 L46.4618502,20.4074741 C46.3978974,20.3707476 46.3519667,20.3032823 46.3519667,20.2298293 L46.3519667,17.5245059 C46.3519667,17.4512718 46.3981175,17.3838083 46.4618502,17.3469059 L48.8106182,15.9944416 C48.8427046,15.9760783 48.8710276,15.9673345 48.9067665,15.9673345 L48.9067665,15.9671156 Z" id="Shape"></path>
                            <path d="M89.9346562,9.90063293 C89.69703,9.90063293 89.4660015,9.94951433 89.2616175,10.0645924 L82.7922037,13.7809947 C82.373547,14.0207685 82.1191657,14.4739949 82.1191657,14.9560349 L82.1191657,22.375199 C82.1191657,22.856977 82.373547,23.3096776 82.7922037,23.550196 L84.4816687,24.5203085 C85.302501,24.9227283 85.6052317,24.9165199 85.9788367,24.9165199 C87.1941525,24.9165199 87.8880682,24.1829891 87.8880682,22.9080438 L87.8880682,15.5845447 C87.8880682,15.4810097 87.797964,15.4069 87.695772,15.4069 L86.885379,15.4069 C86.7815377,15.4069 86.6930805,15.4810097 86.6930805,15.5845447 L86.6930805,22.9080438 C86.6930805,23.4731562 86.1013567,24.0414607 85.140972,23.5638797 L83.382831,22.5391584 C83.320746,22.505493 83.2729455,22.4460736 83.2729455,22.375199 L83.2729455,14.9560349 C83.2729455,14.8855982 83.320197,14.8140686 83.382831,14.7784349 L89.8385077,11.0756731 C89.8989435,11.0411321 89.9709165,11.0411321 90.0308047,11.0756731 L96.4864815,14.7784349 C96.5480167,14.8151614 96.5963647,14.8834557 96.5963647,14.9560349 L96.5963647,22.375199 C96.5963647,22.4460736 96.560631,22.5186527 96.5002162,22.5528008 L90.0308047,26.2555625 C89.9753122,26.2883541 89.8989435,26.2883541 89.8385077,26.2555625 L88.1765137,25.2718078 C88.1270655,25.2429512 88.0594875,25.2451368 88.011687,25.2718078 C87.5529232,25.5305136 87.4666635,25.5605939 87.0364687,25.7090324 C86.9304315,25.7457588 86.76945,25.8029049 87.0914115,25.9822974 L89.2616175,27.2529578 C89.468199,27.3718813 89.6984055,27.4305578 89.9346562,27.4305578 C90.1742025,27.4305578 90.4011135,27.3718813 90.6076942,27.2529578 L97.0771065,23.5501961 C97.4957655,23.3079731 97.7501452,22.856977 97.7501452,22.375199 L97.7501452,14.9560349 C97.7501452,14.4739949 97.4957655,14.0217751 97.0771065,13.7809947 L90.6076942,10.0645924 C90.404958,9.94951433 90.1722825,9.90063293 89.9346562,9.90063293 Z M28.3996894,10.050907 C28.2568669,10.050907 28.115531,10.0867596 27.9876254,10.1602127 L21.13362,14.0815876 C20.8773705,14.2284936 20.7215544,14.5117711 20.7215544,14.8057178 L20.7215544,22.675747 C20.7215544,22.9700435 20.8775368,23.2390237 21.13362,23.3862367 L27.9876254,27.3212521 C28.2438749,27.4684651 28.5555055,27.4684651 28.811755,27.3212521 L35.6657604,23.3862367 C35.9215698,23.2390237 36.0778261,22.9700435 36.0778261,22.675747 L36.0778261,14.8057178 C36.0778261,14.5113351 35.9220099,14.2284936 35.6657604,14.0815876 L28.811755,10.1602127 C28.6838494,10.0867596 28.5425119,10.050907 28.3996894,10.050907 Z M99.535758,10.0920062 L99.535758,10.2832916 L100.071442,10.2832916 L100.071442,11.6905838 L100.29121,11.6905838 L100.29121,10.2832916 L100.84063,10.2832916 L100.84063,10.0920062 L99.535758,10.0920062 Z M101.032926,10.0920062 L101.032926,11.6905838 L101.238958,11.6905838 L101.238958,10.7478422 C101.238958,10.7093662 101.240708,10.6498605 101.238958,10.5702422 C101.236324,10.4891363 101.238958,10.4184376 101.238958,10.378912 L101.238958,10.3378144 L101.692229,11.6904528 L101.911997,11.6904528 L102.379004,10.3378144 C102.379004,10.4238601 102.367446,10.5069326 102.365297,10.5837518 C102.364431,10.6585165 102.365297,10.7146577 102.365297,10.7477112 L102.365297,11.6904528 L102.571329,11.6904528 L102.571329,10.0918753 L102.269149,10.0918753 L101.802143,11.4445585 L101.348871,10.0918753 L101.032956,10.0918753 L101.032926,10.0920062 Z M91.6653262,15.2020601 C89.823123,15.2020601 88.725933,15.9819368 88.725933,17.2788736 C88.725933,18.6858175 89.814882,19.0723664 91.5829132,19.2463814 C93.6981787,19.4523587 93.8630032,19.7613007 93.8630032,20.1754824 C93.8630032,20.893885 93.2872117,21.2002037 91.9263015,21.2002037 C90.2165085,21.2002037 89.8407045,20.7756166 89.7148875,19.929545 C89.7000727,19.8388197 89.629728,19.7655856 89.5363275,19.7655856 L88.6984627,19.7655856 C88.595172,19.7655856 88.5061657,19.8539478 88.5061657,19.956871 C88.5061657,21.0398742 89.0984392,22.3206349 91.9263015,22.3206349 C93.9734378,22.3206349 95.1541395,21.5213022 95.1541395,20.1208304 C95.1541395,18.7324686 94.2003472,18.3598223 92.2147462,18.0986689 C90.208266,17.8345855 90.0170692,17.7053429 90.0170692,17.237907 C90.0170692,16.8520562 90.1791472,16.3360889 91.6653262,16.3360889 C92.9927227,16.3360889 93.4833555,16.6208522 93.6844417,17.5111721 C93.702024,17.5948565 93.776196,17.6614444 93.8630033,17.6614444 L94.700868,17.6614444 C94.7525138,17.6614444 94.802511,17.6299646 94.8382238,17.593107 C94.873386,17.5537572 94.8981098,17.5094227 94.893165,17.4565184 C94.7635028,15.9232172 93.7355378,15.2020601 91.6653263,15.2020601 Z M69.3863732,17.0739476 C69.3589894,17.0739476 69.3286842,17.0739476 69.3039601,17.0874951 L67.9853536,17.8526368 C67.9359054,17.8806194 67.9029405,17.9326912 67.9029405,17.9892684 L67.9029405,19.4922257 C67.9029405,19.548803 67.9359054,19.6006575 67.9853536,19.6288591 L69.3039601,20.3803153 C69.3534066,20.408734 69.4061522,20.408734 69.4550494,20.3803153 L70.7736559,19.6288591 C70.8225549,19.6008764 70.856069,19.548803 70.856069,19.4922257 L70.856069,17.9892684 C70.856069,17.9326912 70.8225774,17.8807935 70.7736559,17.8526368 L69.4550494,17.0874951 C69.4306112,17.0730686 69.4137778,17.0739476 69.3863732,17.0739476 Z" id="Shape"></path>
                        </g>
                    </g>
                </g>
            </g>
        </g>
    </g>
</svg>
